X: 9458
T: Danza De Cariño
R: polka
M: 2/4
K: Dmajor
"D"D>E FG|A>d cB|"G"A>d cB|A3 B/c/|"D"dc/B/ AG|
F>G AB|"G"E>F GA|1 "D"D3 z:|2 "D" D4-|DD FA||
|:"D"d4|cd Bc|A>G F2-|FA AB|
"A" G>F E2-|EG GA|1 "D"F>G A2-|AD FA:|2 "D"D2 DF||
|:AB AF|"A" G>F EF|GA GE|"D" F>E DE|FG FD|
"A" E>D CD|EF EC|1 "D" D2 DF:|2 "D" D2 AB/c/|dc/B/ A/G/F/E/|D2 d2||

